svg/wait-for-approval.svg

<?xml version="1.0" encoding="UTF-8"?>
<svg xmlns="http://www.w3.org/2000/svg" xmlns:xlink="http://www.w3.org/1999/xlink" width="32" height="32" viewBox="0 0 32 32">
<defs>
<clipPath id="clip-0">
<path clip-rule="nonzero" d="M 5 2.5 L 27.625 2.5 L 27.625 28.875 L 5 28.875 Z M 5 2.5 "/>
</clipPath>
<clipPath id="clip-1">
<path clip-rule="nonzero" d="M 0 32 L 0 0 L 32 0 L 32 32 Z M 15.359375 14.078125 C 12.191406 14.078125 9.601562 16.671875 9.601562 19.839844 C 9.601562 23.007812 12.191406 25.601562 15.359375 25.601562 C 18.527344 25.601562 21.121094 23.007812 21.121094 19.839844 C 21.121094 16.671875 18.527344 14.078125 15.359375 14.078125 "/>
</clipPath>
</defs>
<g clip-path="url(#clip-0)">
<g clip-path="url(#clip-1)">
<path fill-rule="nonzero" fill="rgb(0%, 0%, 0%)" fill-opacity="1" d="M 23.039062 28.800781 L 10.878906 28.800781 C 7.699219 28.792969 5.125 26.21875 5.121094 23.039062 L 5.121094 17.023438 C 5.109375 15.808594 5.488281 14.625 6.199219 13.644531 L 13.371094 3.78125 C 13.816406 3.035156 14.574219 2.558594 15.359375 2.558594 C 16.421875 2.558594 17.921875 3.472656 17.921875 5.503906 C 17.921875 6.085938 17.761719 6.476562 17.609375 6.851562 L 17.496094 7.132812 C 17.253906 7.808594 15.988281 10.671875 15.320312 12.160156 C 17.292969 12.164062 21.65625 12.175781 23.316406 12.226562 C 25.140625 12.226562 26.238281 13.460938 26.238281 14.65625 C 26.238281 15.066406 26.171875 15.625 26.117188 16.019531 C 26.679688 16.355469 27.519531 17.074219 27.519531 18.367188 C 27.519531 19.269531 27.085938 19.933594 26.671875 20.367188 C 27.09375 20.757812 27.519531 21.371094 27.519531 22.273438 C 27.519531 23.558594 26.636719 24.335938 26.003906 24.730469 C 26.160156 25.152344 26.238281 25.597656 26.238281 26.046875 C 26.238281 27.199219 25.023438 28.800781 23.039062 28.800781 "/>
</g>
</g>
<path fill-rule="nonzero" fill="rgb(0%, 0%, 0%)" fill-opacity="1" d="M 15.359375 15.039062 C 12.710938 15.046875 10.566406 17.191406 10.558594 19.839844 C 10.558594 22.480469 12.71875 24.640625 15.359375 24.640625 C 18.007812 24.632812 20.152344 22.488281 20.160156 19.839844 C 20.160156 17.199219 18 15.039062 15.359375 15.039062 M 15.839844 20.078125 L 13.726562 21.664062 L 13.152344 20.894531 L 14.878906 19.601562 L 14.878906 16.960938 L 15.839844 16.960938 Z M 15.839844 20.078125 "/>
</svg>

<svg role="img" viewBox="0 0 32 32" xmlns="http://www.w3.org/2000/svg"><defs><clipPath id="wait-for-approval_svg__a"><path d="M5 2.5h22.625v26.375H5Zm0 0"/></clipPath><clipPath id="wait-for-approval_svg__b"><path d="M0 32V0h32v32Zm15.36-17.922c-3.169 0-5.758 2.594-5.758 5.762s2.59 5.762 5.757 5.762c3.168 0 5.762-2.594 5.762-5.762s-2.594-5.762-5.762-5.762"/></clipPath></defs><g clip-path="url(#wait-for-approval_svg__a)"><g clip-path="url(#wait-for-approval_svg__b)"><path d="M23.04 28.8H10.878a5.77 5.77 0 0 1-5.758-5.76v-6.017a5.67 5.67 0 0 1 1.08-3.378l7.172-9.864c.445-.746 1.203-1.222 1.988-1.222 1.063 0 2.563.914 2.563 2.945 0 .582-.16.973-.313 1.348l-.113.28c-.242.677-1.508 3.54-2.176 5.028 1.973.004 6.336.016 7.996.067 1.825 0 2.922 1.234 2.922 2.43 0 .41-.066.968-.12 1.363.562.335 1.402 1.054 1.402 2.347 0 .903-.434 1.567-.848 2 .422.39.848 1.004.848 1.906 0 1.286-.883 2.063-1.516 2.457.156.422.234.868.234 1.317 0 1.152-1.215 2.754-3.199 2.754"/></g></g><path d="M15.36 15.04a4.815 4.815 0 0 0-4.801 4.8c0 2.64 2.16 4.8 4.8 4.8a4.815 4.815 0 0 0 4.801-4.8c0-2.64-2.16-4.8-4.8-4.8m.48 5.038-2.113 1.586-.575-.77 1.727-1.292V16.96h.96Zm0 0"/></svg>
